X: 5282
T: Broomstick, The
R: reel
M: 4/4
K: Adorian
|:EAAG A2 Bd|efed ef g2|GBAB G2 Bd|egdB BAAG|
EAAG A2 Bd|efed Bdef|gage de g2|gedB BA A2:|
|:eaag agbg|agbg agef|eggf geaf|geaf ged2|
eaag agbg|agbg agef|gfge de g2|gedB BA A2:|

